X: 127
T: I Saw Thy Form
N:"With feeling"
B:O'Neill's 127
Z:Transcribed by henrik.norbeck@mailbox.swipnet.se
M:C
L:1/8
K:D
(d>e)|f2 "~"(f/e/d/c/) d2 z .A|(.c.B.A.G) (GF) z A|(FA)(de) f2 (ed)|d4 (e/f/e) (d>e)|
f2 "~"(f/e/d/c/) d2 z A|(cBAG) (GF) z A|(F<A) (d<f) (a<f) (e<f)|d2 (3def (e<d)||
z2|(a2 gf) (f<e) (e<g)|(fdBf) (f3/2g/4f/4) ef|g3 f (f/e/g/f/) (ed)|d3 ^d e2 (=de)|
f2 "~"(f/e/d/c/) d3 A|(cBAG) (GF) z A|(F<A) (d<f) (a<f) (e<f)|d2 (3def (e<d)||


